X:20013
T:Trade Wind Hornpipe
T:Navy Lark Theme
R:Hornpipe
C:Trad.
O:England
M:4/4
L:1/8
Q:1/4=140
K:G
|:GA|"G"B2Bc "Bm"dc BA|"G"B2G2 G2AB|"Am"cB cd ed cB|"Am"AG FE "Bm"D2d2|
"C"E2e2"Bm"F2f2|"C"gf ga "G"g2Bc|"Bm"d^c de d=c BA|"G"B2G2"C"G2:|
|:GF|"C"E2e2 e2fe|"Bm"d^c de "G"dB GB|"Am"cB cd cA FA|"G"BA Bc B2GF|
"C"E2e2 e2fe|"Bm"d^c de "G"dB GB|"Am"cB cd cA FA|"G"B2G2"C"G2:|

